exported-svg/git-pull-request.svg

<svg height="24" viewBox="0 0 24 24" width="24" xmlns="http://www.w3.org/2000/svg"><path d="m7 9.96455557v11.53544443c0 .2761424-.22385763.5-.5.5s-.5-.2238576-.5-.5v-11.53544443c-1.69614707-.24261483-3-1.70131962-3-3.46455557 0-1.93299662 1.56700338-3.5 3.5-3.5s3.5 1.56700338 3.5 3.5c0 1.76323595-1.30385293 3.22194074-3 3.46455557zm12 5.07088883c1.6961471.2426149 3 1.7013196 3 3.4645556 0 1.9329966-1.5670034 3.5-3.5 3.5s-3.5-1.5670034-3.5-3.5c0-1.763236 1.3038529-3.2219407 3-3.4645556v-6.5354444c0-.82842712-.6715729-1.5-1.5-1.5h-3c-.2761424 0-.5-.22385763-.5-.5s.2238576-.5.5-.5h3c1.3807119 0 2.5 1.11928813 2.5 2.5zm-.5 5.9645556c1.3807119 0 2.5-1.1192881 2.5-2.5s-1.1192881-2.5-2.5-2.5-2.5 1.1192881-2.5 2.5 1.1192881 2.5 2.5 2.5zm-12-12c1.38071187 0 2.5-1.11928813 2.5-2.5s-1.11928813-2.5-2.5-2.5-2.5 1.11928813-2.5 2.5 1.11928813 2.5 2.5 2.5z"/></svg>

<?xml version="1.0" encoding="UTF-8"?>
<svg width="24px" height="24px" viewBox="0 0 24 24" version="1.1" xmlns="http://www.w3.org/2000/svg" xmlns:xlink="http://www.w3.org/1999/xlink">
    <!-- Generator: Sketch 55.2 (78181) - https://sketchapp.com -->
    <title>git-pull-request</title>
    <desc>Created with Sketch.</desc>
    <g id="git-pull-request" stroke="none" stroke-width="1" fill="none" fill-rule="evenodd">
        <path d="M7,9.96455557 L7,21.5 C7,21.7761424 6.77614237,22 6.5,22 C6.22385763,22 6,21.7761424 6,21.5 L6,9.96455557 C4.30385293,9.72194074 3,8.26323595 3,6.5 C3,4.56700338 4.56700338,3 6.5,3 C8.43299662,3 10,4.56700338 10,6.5 C10,8.26323595 8.69614707,9.72194074 7,9.96455557 Z M19,15.0354444 C20.6961471,15.2780593 22,16.736764 22,18.5 C22,20.4329966 20.4329966,22 18.5,22 C16.5670034,22 15,20.4329966 15,18.5 C15,16.736764 16.3038529,15.2780593 18,15.0354444 L18,8.5 C18,7.67157288 17.3284271,7 16.5,7 L13.5,7 C13.2238576,7 13,6.77614237 13,6.5 C13,6.22385763 13.2238576,6 13.5,6 L16.5,6 C17.8807119,6 19,7.11928813 19,8.5 L19,15.0354444 Z M18.5,21 C19.8807119,21 21,19.8807119 21,18.5 C21,17.1192881 19.8807119,16 18.5,16 C17.1192881,16 16,17.1192881 16,18.5 C16,19.8807119 17.1192881,21 18.5,21 Z M6.5,9 C7.88071187,9 9,7.88071187 9,6.5 C9,5.11928813 7.88071187,4 6.5,4 C5.11928813,4 4,5.11928813 4,6.5 C4,7.88071187 5.11928813,9 6.5,9 Z" id="Combined-Shape" fill="#000000" fill-rule="nonzero"></path>
    </g>
</svg>
